X:1
T:Hear, and Live!
T:Hear, and Live!
T:Hubert Platt Main
T:Frances Jane (Fanny) Crosby, 1899
T:Public Domain Courtesy of the Cyber Hymnal™
C:Hubert Platt Main
Z:Public Domain
Z:Courtesy of the Cyber Hymnal™
%%score ( 1 2 ) ( 3 4 )
L:1/8
Q:1/4=110
M:6/8
K:D
V:1 treble 
V:2 treble 
V:3 bass 
V:4 bass 
V:1
 [DA] | [DA]2 [Fd] [DF]2 [DA] | [CA]2 [CG] [CE]2 [DF] | [EG]2 [Ge] [GB]2 [Gc] | %4
w: 1.~O|trou- bled heart, why|seek in vain The|balm of rest from|
w: 2.~He|calls a- gain; on|Him be- lieve, His|gift of grace thro’|
w: 3.~To|Je- sus come, and|at His feet That|pre- cious name with|
 [FB]2 [FA] [FA]2 [DF] | [DF]2 [DA] A2 [Ad] | [Gd]2 [DB] [DB]2 [DG] | [DF]2 [DA] [CE]2 [CA] | %8
w: earth to gain, While|Je- sus waits, your|king to reign, And|all your sins for-|
w: faith re- ceive; Your|tru- est friend no|long- er grieve, But|haste your heart to|
w: praise re- peat; Oh,|trust Him now, and|learn how sweet The|peace His love will|
 D3- D2 ||"^Refrain" [CE] | (EA)[EB] [Ec]2 [Ee] | [Ed]2 [Ec] [EB]2 E | (E^G)[GB] [Gd]2 [EB] | %13
w: give! *|||||
w: give. *|||||
w: give. *|||||
 [Ee]2 [Ed] [Ec]2 [EA] | [Ad]2 [Dc] [DB]2 [^DA] | [EG]2 [^DF] E2 [^EB] | (AB)[Fd] [DF]2 [CE] | %17
w: ||||
w: ||||
w: ||||
 D3- D2 |] %18
w: |
w: |
w: |
V:2
 x | x6 | x6 | x6 | x6 | x3 (DF) x | x6 | x6 | D3- D2 || x | C2 x4 | x5 E | E2 x4 | x6 | x6 | %15
 x3 ^E2 x | F2 x4 | D3- D2 |] %18
V:3
 [D,F,] | [D,F,]2 [D,A,] [D,A,]2 [F,A,] | [E,A,]2 [E,A,] A,2 A, | [A,C]2 [A,C] [A,E]2 [A,E] | %4
w: ~|~ ~ ~ ~|~ ~ ~ ~|~ ~ ~ ~|
 [D,D]2 [D,D] [D,D]2 [D,A,] | [D,A,]2 [D,F,] (F,A,)[F,C] | [G,B,]2 G, G,2 [E,B,] | %7
w: ~ ~ ~ ~|~ ~ ~ * ~|~ ~ ~ ~|
 A,2 [A,,F,] [A,,G,]2 [A,,G,] | [D,F,]3- [D,F,]2 || [A,,A,] | [A,,A,]2 [E,^G,] A,2 [A,C] | %11
w: ~ ~ ~ ~|~ *|A-|wake, a- rise! no|
 [^G,B,]2 A, [E,G,]2 [E,G,] | (^G,B,)[E,D] [E,B,]2 [D,G,] | [C,A,]2 [E,^G,] A,2 [=G,C] | %14
w: more de- lay; He|calls * you now— His|voice o- bey! The|
 [F,D]2 [F,A,] [G,B,]2 [F,B,] | [E,B,]2 [F,A,] [G,B,]2 [^G,D] | [A,D]2 A, [A,,A,]2 [A,,G,] | %17
w: lov- ing words He|speaks to- day, Oh|hear, and you shall|
 [D,F,]3- [D,F,]2 |] %18
w: live! *|
V:4
 x | x6 | x3 A,2 A, | x6 | x6 | x3 D,2 x | x2 G, G,2 x | A,2 x4 | x5 || x | x3 A,2 x | x2 A, x3 | %12
 E,2 x4 | x3 A,2 x | x6 | x6 | x2 A, x3 | x5 |] %18

